packages/core/src/svgs/hair.svg

<svg width="24" height="24" viewBox="0 0 24 24" fill="none" xmlns="http://www.w3.org/2000/svg">
<g clip-path="url(#clip0_31_11220)">
<path d="M0 0H24V24H0V0Z" fill="#F7F0E0"/>
<path fill-rule="evenodd" clip-rule="evenodd" d="M12.0001 18.8572C13.8187 18.8572 15.5628 18.1348 16.8488 16.8488C18.1348 15.5628 18.8572 13.8187 18.8572 12.0001C18.8572 10.1814 18.1348 8.4373 16.8488 7.15134C15.5628 5.86537 13.8187 5.14293 12.0001 5.14293C10.1814 5.14293 8.4373 5.86537 7.15134 7.15134C5.86537 8.4373 5.14293 10.1814 5.14293 12.0001C5.14293 13.8187 5.86537 15.5628 7.15134 16.8488C8.4373 18.1348 10.1814 18.8572 12.0001 18.8572ZM12.0001 19.2858C13.9324 19.2858 15.7855 18.5182 17.1518 17.1518C18.5182 15.7855 19.2858 13.9324 19.2858 12.0001C19.2858 10.0678 18.5182 8.21463 17.1518 6.84829C15.7855 5.48196 13.9324 4.71436 12.0001 4.71436C10.0678 4.71436 8.21463 5.48196 6.84829 6.84829C5.48196 8.21463 4.71436 10.0678 4.71436 12.0001C4.71436 13.9324 5.48196 15.7855 6.84829 17.1518C8.21463 18.5182 10.0678 19.2858 12.0001 19.2858Z" fill="black"/>
<path d="M11.5715 9H9.85718L10.2857 9.42857V14.1429L9.85718 14.5714H11.5715L11.1429 14.1429V9.42857L11.5715 9Z" fill="black"/>
<path d="M7.71436 13.2855V12.1712C8.20721 11.6226 9.12864 10.6755 9.96864 10.8212C10.4872 10.9069 10.6972 11.5369 10.6458 11.9955C10.8172 11.8241 10.9886 11.6441 11.1901 11.5069C11.3401 11.3998 11.6486 11.2369 11.9786 11.4041C12.2829 11.5541 12.4072 11.8198 12.4629 12.0255L12.5829 11.9526C12.8572 11.7898 13.2686 11.5712 13.7144 11.5712H16.2858V12.4283H13.7144C13.3972 12.4283 13.1015 12.6383 12.8444 12.8012C12.6558 12.9212 12.4501 13.0712 12.2144 13.0712C12.0601 13.0712 11.9229 13.0069 11.8286 12.8955C11.6658 12.7069 11.7001 12.4669 11.6358 12.2398C11.3658 12.4498 11.1644 12.7283 10.8815 12.9255C10.7315 13.0283 10.4229 13.1912 10.0929 13.0241C9.98662 12.974 9.89399 12.899 9.82293 12.8055C9.54436 12.4198 9.92578 12.0555 9.76721 11.6869C9.0215 11.9526 8.22436 12.7198 7.71436 13.2855Z" fill="#3FD0C8"/>
<path d="M14.1428 9H12.4285L12.857 9.42857V14.1429L12.4285 14.5714H14.1428L13.7142 14.1429V9.42857L14.1428 9Z" fill="black"/>
</g>
<defs>
<clipPath id="clip0_31_11220">
<rect width="24" height="24" fill="white"/>
</clipPath>
</defs>
</svg>

<svg xmlns="http://www.w3.org/2000/svg" width="24" height="24" fill="none" viewBox="0 0 24 24"><g clip-path="url(#a)"><path fill="#F7F0E0" d="M0 0h24v24H0z"/><path fill="#000" fill-rule="evenodd" d="M12 18.857a6.857 6.857 0 1 0 0-13.714 6.857 6.857 0 0 0 0 13.714m0 .429a7.285 7.285 0 1 0 0-14.57 7.285 7.285 0 0 0 0 14.57" clip-rule="evenodd"/><path fill="#000" d="M11.572 9H9.857l.429.429v4.714l-.429.428h1.715l-.43-.428V9.429z"/><path fill="#3FD0C8" d="M7.714 13.286V12.17c.493-.548 1.415-1.495 2.255-1.35.518.086.728.716.677 1.175.171-.172.343-.352.544-.49.15-.106.459-.27.789-.102.304.15.428.416.484.621l.12-.072c.274-.163.686-.382 1.131-.382h2.572v.857h-2.572c-.317 0-.613.21-.87.373-.188.12-.394.27-.63.27a.5.5 0 0 1-.385-.175c-.163-.19-.129-.43-.193-.656-.27.21-.472.488-.754.685-.15.103-.46.266-.79.1a.7.7 0 0 1-.27-.22c-.278-.385.104-.75-.055-1.118-.745.266-1.543 1.033-2.053 1.599"/><path fill="#000" d="M14.143 9h-1.715l.429.429v4.714l-.428.428h1.714l-.429-.428V9.429z"/></g><defs><clipPath id="a"><path fill="#fff" d="M0 0h24v24H0z"/></clipPath></defs></svg>
